X: 02083
T: MONADNOCK MOUNTAIN
C: Bob McQuillen June'74
B: Bob's Note Book 1&2 #83
%R: reel
Z: 2019 John Chambers <jc:trillian.mit.edu>
M: C
L: 1/8
K: D
(3(ABc) \
| d2AG FAde | f2dA FAdf | a2fd a2fd | e2A2 Agfe |
| d2AG FAde | f2dA FAdf | a2fd a2fd | e2d2 d2  :|
|: cd \
| e2cA gede | f2df afdf | gbag fagf | e2A2 A2cd |
| e2cA geag | fdfg afdf | gbag fedc | d2f2 d2 :|
%%begintext align
%%endtext

%%sep 1 1 500

%%sep 1 1 500

